Papirus/16x16/apps/microsoft-365.svg

<!-- Created with Inkscape (http://www.inkscape.org/) -->
<svg width="16" height="16" version="1.1" viewBox="0 0 16 16" xmlns="http://www.w3.org/2000/svg">
 <path d="m6.62941 1.3490703-0.0786 0.046366c-0.12509 0.073737-0.24293 0.1561142-0.3529 0.246167l0.22683-0.1554226h1.92524l0.35 2.581481-1.74999 1.704623-1.75 1.1848493v1.3662504c0 0.9542382 0.51201 1.8391136 1.35008 2.3332496l1.8423 1.086215-3.89238 2.211675h-0.75071l-1.3992-0.82497c-0.83808-0.494136-1.35008-1.379001-1.35008-2.333248v-4.5942521c0-0.9545499 0.51232-1.8396583 1.35083-2.333697l4.19998-2.4745963c0.026-0.01539 0.0523-0.030196 0.0786-0.04471z" style="fill:#1e73c7"/>
 <path d="m10.799931 6.7950289v1.5274396c0 0.9542479-0.51201 1.8391135-1.350081 2.3332495l-4.19999 2.47633c-0.85918 0.506585-1.92818 0.524858-2.80248 0.05484l4.10262 2.418958c0.89131 0.525539 2.0085 0.525539 2.89985 0l4.199981-2.476369c0.83808-0.494127 1.350059-1.379001 1.350059-2.33324v-1.1033685l-0.349999-0.5113869z" style="fill:#8762b5"/>
 <path d="m13.649141 3.8682984-4.199991-2.4745962c-0.86334-0.50867901-1.93843-0.52443947-2.8149-0.047242l-0.0834 0.049191c-0.8385 0.4940386-1.35083 1.3791275-1.35083 2.3336872v3.2332899l1.35082-0.7959226c0.89096-0.5249167 2.00739-0.5249167 2.89834 0l4.19999 2.4745964c0.81228 0.4786289 1.31849 1.3241803 1.34932 2.2443749 1e-3 -0.02971 2e-3 -0.05951 2e-3 -0.08932v-4.5942641c0-0.9545499-0.512331-1.8396584-1.350821-2.3336873z" style="fill:#4aafe8"/>
</svg>

<svg xmlns="http://www.w3.org/2000/svg" width="16" height="16" version="1.1">
 <path style="fill:#1e73c7" d="M 8.35,1.49 8.7,4.07 6.95,5.77 5,7 V 8.36 C 5,9.32 5.71,10.16 6.55,10.66 L 8.39,11.74 4.5,13.96 H 3.75 L 2.35,13.13 C 1.51,12.63 1,11.75 1,10.8 V 6.2 C 1,5.25 1.51,4.36 2.35,3.87 L 6.55,1.4 Z"/>
 <path style="fill:#8762b5" d="M 11,6.8 V 8.32 C 11,9.28 10.29,10.16 9.45,10.66 L 5.25,13.13 C 4.39,13.64 3.32,13.66 2.45,13.19 L 6.55,15.61 C 7.44,16.13 8.56,16.13 9.45,15.61 L 13.65,13.13 C 14.49,12.63 15,11.75 15,10.8 V 9.69 L 14.65,9.18 Z"/>
 <path style="fill:#4aafe8" d="M 13.65,3.87 9.45,1.39 C 9.02,1.14 8.5426,1 8.0475,1 7.5599,1 7.07,1.11 6.63,1.35 L 6.55,1.4 C 5.71,1.89 5,2.77 5,3.73 V 7 C 5,7 6.2994,6 8,6 9.6733,6 13.65,8.64 13.65,8.64 14.46,9.12 14.97,9.97 15,10.89 V 10.8 6.2 C 15,5.25 14.49,4.36 13.65,3.87 Z"/>
</svg>
